icons/calendar-star.svg

<svg xmlns="http://www.w3.org/2000/svg" width="24" height="24" viewBox="0 0 24 24">
  <path d="M22,10 L22,20 C22,21.6568542 20.6568542,23 19,23 L5,23 C3.34314575,23 2,21.6568542 2,20 L2,10 L22,10 Z M12.2212829,12.1814077 C11.973656,12.0591965 11.6738431,12.160866 11.551632,12.4084929 L11.551632,12.4084929 L10.6774832,14.1797118 L8.72282709,14.4637399 C8.61400857,14.4795522 8.51343737,14.5307958 8.43668307,14.6095376 C8.24393246,14.8072794 8.24797861,15.123836 8.4457204,15.3165866 L8.4457204,15.3165866 L9.86012284,16.6952882 L9.52622772,18.6420462 C9.50763929,18.750425 9.52529663,18.861909 9.57646617,18.9592393 C9.70496657,19.2036616 10.0072801,19.2976348 10.2517024,19.1691344 L10.2517024,19.1691344 L12,18.25 L13.7482976,19.1691344 C13.8456278,19.220304 13.9571118,19.2379613 14.0654907,19.2193729 C14.3376589,19.1726924 14.5204528,18.9142144 14.4737723,18.6420462 L14.4737723,18.6420462 L14.1398772,16.6952882 L15.5542796,15.3165866 C15.6330214,15.2398323 15.684265,15.1392611 15.7000773,15.0304426 C15.7397861,14.7571702 15.5504453,14.5034487 15.2771729,14.4637399 L15.2771729,14.4637399 L13.3225168,14.1797118 L12.448368,12.4084929 C12.3997029,12.3098866 12.3198892,12.2300728 12.2212829,12.1814077 Z M7,3 L7,4 L7.00672773,4.11662113 C7.06449284,4.61395981 7.48716416,5 8,5 C8.51283584,5 8.93550716,4.61395981 8.99327227,4.11662113 L9,4 L9,3 L15,3 L15,4 L15.0067277,4.11662113 C15.0644928,4.61395981 15.4871642,5 16,5 C16.5128358,5 16.9355072,4.61395981 16.9932723,4.11662113 L17,4 L17,3 L19,3 C20.6568542,3 22,4.34314575 22,6 L22,8 L2,8 L2,6 C2,4.34314575 3.34314575,3 5,3 L7,3 Z M16,1 C16.5128358,1 16.9355072,1.38604019 16.9932723,1.88337887 L17,2 L17,3 L15,3 L15,2 C15,1.44771525 15.4477153,1 16,1 Z M8,1 C8.51283584,1 8.93550716,1.38604019 8.99327227,1.88337887 L9,2 L9,3 L7,3 L7,2 C7,1.44771525 7.44771525,1 8,1 Z"/>
</svg>

<svg xmlns="http://www.w3.org/2000/svg" viewBox="0 0 24 24">
  <path d="M22 10v10a3 3 0 0 1-3 3H5a3 3 0 0 1-3-3V10h20zm-9.78 2.18a.5.5 0 0 0-.67.23l-.87 1.77-1.96.28a.5.5 0 0 0-.27.86l1.41 1.38-.33 1.94a.5.5 0 0 0 .72.53l1.75-.92 1.75.92a.5.5 0 0 0 .72-.53l-.33-1.94 1.41-1.38a.5.5 0 0 0-.27-.86l-1.96-.28-.87-1.77a.5.5 0 0 0-.23-.23zM7 3v1.12a1 1 0 0 0 2 0V3h6v1.12a1 1 0 0 0 2 0V3h2a3 3 0 0 1 3 3v2H2V6a3 3 0 0 1 3-3h2zm9-2a1 1 0 0 1 1 .88V3h-2V2a1 1 0 0 1 1-1zM8 1a1 1 0 0 1 1 .88V3H7V2a1 1 0 0 1 1-1z"/>
</svg>
